Sweet-Rainbow/icons/eddy.svg

<?xml version="1.0" encoding="UTF-8" standalone="no"?>
<!-- Generator: Gravit.io -->

<svg
   xmlns:dc="http://purl.org/dc/elements/1.1/"
   xmlns:cc="http://creativecommons.org/ns#"
   xmlns:rdf="http://www.w3.org/1999/02/22-rdf-syntax-ns#"
   xmlns:svg="http://www.w3.org/2000/svg"
   xmlns="http://www.w3.org/2000/svg"
   xmlns:sodipodi="http://sodipodi.sourceforge.net/DTD/sodipodi-0.dtd"
   xmlns:inkscape="http://www.inkscape.org/namespaces/inkscape"
   style="isolation:isolate"
   viewBox="0 0 36 36"
   width="48"
   height="48"
   version="1.1"
   id="svg9"
   sodipodi:docname="eddy.svg"
   inkscape:version="0.92.4 (5da689c313, 2019-01-14)">
  <metadata
     id="metadata15">
    <rdf:RDF>
      <cc:Work
         rdf:about="">
        <dc:format>image/svg+xml</dc:format>
        <dc:type
           rdf:resource="http://purl.org/dc/dcmitype/StillImage" />
        <dc:title></dc:title>
      </cc:Work>
    </rdf:RDF>
  </metadata>
  <defs
     id="defs13" />
  <sodipodi:namedview
     pagecolor="#ffffff"
     bordercolor="#666666"
     borderopacity="1"
     objecttolerance="10"
     gridtolerance="10"
     guidetolerance="10"
     inkscape:pageopacity="0"
     inkscape:pageshadow="2"
     inkscape:window-width="640"
     inkscape:window-height="480"
     id="namedview11"
     showgrid="false"
     inkscape:zoom="29.365243"
     inkscape:cx="25.325443"
     inkscape:cy="32"
     inkscape:current-layer="svg9"
     units="px" />
  <linearGradient
     id="_lgradient_2"
     x1="0"
     y1="0.5"
     x2="1"
     y2="0.5"
     gradientTransform="matrix(43,0,0,43,2.5,2.5)"
     gradientUnits="userSpaceOnUse">
    <stop
       offset="0%"
       stop-opacity="1"
       style="stop-color:rgb(255,229,59)"
       id="stop2" />
    <stop
       offset="98.69565217391305%"
       stop-opacity="1"
       style="stop-color:rgb(255,0,91)"
       id="stop4" />
  </linearGradient>
  <g
     id="g826"
     transform="matrix(0.8372093,0,0,0.8372093,-2.0930232,-2.0930232)">
    <path
       id="path7"
       d="m 45.5,10.5 v -5 c 0,-1.656 -1.344,-3 -3,-3 h -37 c -1.656,0 -3,1.344 -3,3 v 6.5 0 c 0,0.828 0.672,1.5 1.5,1.5 v 0 c 0.828,0 1.5,-0.672 1.5,-1.5 v 0 -5.5 c 0,-0.552 0.448,-1 1,-1 h 35 c 0.552,0 1,0.448 1,1 V 10 10.5 H 10 v 0 c -0.828,0 -1.5,0.672 -1.5,1.5 v 0 c 0,0.828 0.672,1.5 1.5,1.5 v 0 h 34 v 0 c 0.828,0 1.5,-1.344 1.5,-3 z M 31.334,26.805 c 0.023,0.626 -0.183,0.931 -0.369,1.468 L 30.63,28.44 c -0.274,0.532 0.027,0.338 -0.169,0.761 -0.428,0.38 -1.297,1.189 -1.576,1.263 -0.203,-0.004 0.138,-0.24 0.182,-0.332 -0.572,0.393 -0.459,0.59 -1.335,0.829 l -0.025,-0.057 c -2.158,1.016 -5.157,-0.997 -5.117,-3.742 -0.023,0.174 -0.066,0.13 -0.114,0.2 -0.111,-1.412 0.653,-2.831 1.941,-3.411 1.26,-0.624 2.737,-0.368 3.639,0.474 -0.495,-0.65 -1.482,-1.338 -2.651,-1.274 -1.145,0.018 -2.217,0.746 -2.575,1.537 -0.587,0.369 -0.655,1.424 -0.911,1.617 -0.344,2.529 0.647,3.621 2.325,4.907 0.263,0.178 0.074,0.205 0.109,0.34 -0.557,-0.261 -1.067,-0.654 -1.487,-1.137 0.223,0.326 0.463,0.643 0.774,0.891 -0.526,-0.177 -1.228,-1.273 -1.432,-1.317 0.905,1.621 3.674,2.844 5.124,2.237 -0.671,0.025 -1.523,0.014 -2.277,-0.265 -0.317,-0.163 -0.747,-0.5 -0.67,-0.563 1.978,0.739 4.022,0.559 5.733,-0.813 0.436,-0.339 0.912,-0.916 1.05,-0.924 -0.207,0.312 0.035,0.15 -0.124,0.425 0.433,-0.7 -0.189,-0.285 0.448,-1.209 l 0.236,0.324 c -0.089,-0.581 0.721,-1.287 0.639,-2.205 0.186,-0.281 0.207,0.302 0.01,0.948 0.273,-0.717 0.072,-0.832 0.142,-1.424 0.076,0.199 0.176,0.41 0.227,0.621 -0.178,-0.694 0.182,-1.167 0.272,-1.57 -0.089,-0.039 -0.275,0.306 -0.318,-0.512 0.006,-0.356 0.099,-0.186 0.135,-0.274 -0.07,-0.04 -0.253,-0.313 -0.364,-0.835 0.08,-0.124 0.215,0.318 0.325,0.336 -0.071,-0.415 -0.192,-0.732 -0.197,-1.051 -0.322,-0.671 -0.114,0.089 -0.374,-0.288 -0.342,-1.066 0.283,-0.248 0.326,-0.732 0.518,0.75 0.813,1.914 0.949,2.395 -0.104,-0.587 -0.271,-1.156 -0.476,-1.707 0.158,0.067 -0.253,-1.208 0.205,-0.364 -0.489,-1.8 -2.093,-3.481 -3.568,-4.27 0.18,0.165 0.407,0.372 0.326,0.405 -0.734,-0.437 -0.605,-0.471 -0.71,-0.656 -0.598,-0.243 -0.638,0.02 -1.033,10e-4 C 27.117,17.421 26.9,17.484 25.863,17.11 l 0.047,0.221 c -0.747,-0.249 -0.87,0.094 -1.677,0 -0.049,-0.038 0.259,-0.138 0.512,-0.175 -0.722,0.095 -0.688,-0.143 -1.394,0.026 0.174,-0.122 0.358,-0.203 0.544,-0.307 -0.589,0.036 -1.406,0.343 -1.154,0.064 -0.96,0.428 -2.665,1.03 -3.622,1.927 l -0.03,-0.201 c -0.438,0.526 -1.912,1.572 -2.029,2.254 l -0.118,0.027 c -0.227,0.386 -0.375,0.824 -0.556,1.221 -0.299,0.509 -0.438,0.196 -0.395,0.276 -0.587,1.19 -0.879,2.19 -1.131,3.01 0.18,0.268 0.005,1.615 0.072,2.692 -0.294,5.324 3.736,10.492 8.142,11.685 0.646,0.231 1.606,0.223 2.422,0.246 -0.963,-0.276 -1.087,-0.146 -2.027,-0.473 -0.677,-0.32 -0.825,-0.684 -1.305,-1.1 l 0.19,0.336 c -0.94,-0.333 -0.547,-0.412 -1.312,-0.655 L 21.245,37.92 C 20.94,37.896 20.437,37.406 20.3,37.134 l -0.334,0.013 C 19.565,36.653 19.352,36.296 19.367,36.02 l -0.107,0.192 c -0.122,-0.21 -1.475,-1.855 -0.773,-1.472 -0.131,-0.118 -0.304,-0.193 -0.492,-0.535 l 0.143,-0.163 c -0.337,-0.435 -0.622,-0.991 -0.6,-1.177 0.18,0.243 0.305,0.289 0.429,0.33 -0.853,-2.115 -0.901,-0.116 -1.546,-2.153 l 0.136,-0.011 c -0.104,-0.158 -0.168,-0.329 -0.252,-0.497 l 0.059,-0.592 c -0.613,-0.709 -0.171,-3.017 -0.082,-4.283 0.061,-0.515 0.512,-1.063 0.855,-1.922 l -0.209,-0.036 c 0.4,-0.697 2.281,-2.798 3.152,-2.691 0.423,-0.53 -0.083,-0.002 -0.166,-0.135 0.927,-0.959 1.219,-0.678 1.845,-0.851 0.674,-0.4 -0.58,0.157 -0.26,-0.152 1.167,-0.298 0.827,-0.678 2.349,-0.829 0.16,0.092 -0.373,0.141 -0.507,0.26 0.972,-0.476 3.076,-0.367 4.443,0.264 1.585,0.741 3.367,2.931 3.438,4.992 l 0.08,0.022 c -0.041,0.819 0.125,1.766 -0.163,2.637 z M 42.5,18 v 0 c 0,-0.828 0.672,-1.5 1.5,-1.5 v 0 c 0.828,0 1.5,0.672 1.5,1.5 v 0 24.5 c 0,1.656 -1.344,3 -3,3 h -37 c -1.656,0 -3,-1.344 -3,-3 V 18 18 c 0,-0.828 0.672,-1.5 1.5,-1.5 v 0 c 0.828,0 1.5,0.672 1.5,1.5 v 0 23.5 c 0,0.552 0.448,1 1,1 h 35 c 0.552,0 1,-0.448 1,-1 z"
       inkscape:connector-curvature="0"
       style="fill:url(#_lgradient_2);fill-rule:evenodd" />
  </g>
</svg>

<?xml version="1.0" encoding="UTF-8" standalone="no"?><!-- Generator: Gravit.io --><svg xmlns="http://www.w3.org/2000/svg" xmlns:xlink="http://www.w3.org/1999/xlink" style="isolation:isolate" viewBox="0 0 48 48" width="48pt" height="48pt"><linearGradient id="_lgradient_2" x1="0" y1="0.5" x2="1" y2="0.5" gradientTransform="matrix(43,0,0,43,2.5,2.5)" gradientUnits="userSpaceOnUse"><stop offset="0%" stop-opacity="1" style="stop-color:rgb(255,229,59)"/><stop offset="98.69565217391305%" stop-opacity="1" style="stop-color:rgb(255,0,91)"/></linearGradient><path d=" M 45.5 10.5 L 45.5 5.5 C 45.5 3.844 44.156 2.5 42.5 2.5 L 5.5 2.5 C 3.844 2.5 2.5 3.844 2.5 5.5 L 2.5 12 L 2.5 12 C 2.5 12.828 3.172 13.5 4 13.5 L 4 13.5 C 4.828 13.5 5.5 12.828 5.5 12 L 5.5 12 L 5.5 6.5 C 5.5 5.948 5.948 5.5 6.5 5.5 L 41.5 5.5 C 42.052 5.5 42.5 5.948 42.5 6.5 L 42.5 10 L 42.5 10.5 L 10 10.5 L 10 10.5 C 9.172 10.5 8.5 11.172 8.5 12 L 8.5 12 C 8.5 12.828 9.172 13.5 10 13.5 L 10 13.5 L 44 13.5 L 44 13.5 C 44.828 13.5 45.5 12.156 45.5 10.5 L 45.5 10.5 Z  M 31.334 26.805 C 31.357 27.431 31.151 27.736 30.965 28.273 L 30.63 28.44 C 30.356 28.972 30.657 28.778 30.461 29.201 C 30.033 29.581 29.164 30.39 28.885 30.464 C 28.682 30.46 29.023 30.224 29.067 30.132 C 28.495 30.525 28.608 30.722 27.732 30.961 L 27.707 30.904 C 25.549 31.92 22.55 29.907 22.59 27.162 C 22.567 27.336 22.524 27.292 22.476 27.362 C 22.365 25.95 23.129 24.531 24.417 23.951 C 25.677 23.327 27.154 23.583 28.056 24.425 C 27.561 23.775 26.574 23.087 25.405 23.151 C 24.26 23.169 23.188 23.897 22.83 24.688 C 22.243 25.057 22.175 26.112 21.919 26.305 C 21.575 28.834 22.566 29.926 24.244 31.212 C 24.507 31.39 24.318 31.417 24.353 31.552 C 23.796 31.291 23.286 30.898 22.866 30.415 C 23.089 30.741 23.329 31.058 23.64 31.306 C 23.114 31.129 22.412 30.033 22.208 29.989 C 23.113 31.61 25.882 32.833 27.332 32.226 C 26.661 32.251 25.809 32.24 25.055 31.961 C 24.738 31.798 24.308 31.461 24.385 31.398 C 26.363 32.137 28.407 31.957 30.118 30.585 C 30.554 30.246 31.03 29.669 31.168 29.661 C 30.961 29.973 31.203 29.811 31.044 30.086 C 31.477 29.386 30.855 29.801 31.492 28.877 L 31.728 29.201 C 31.639 28.62 32.449 27.914 32.367 26.996 C 32.553 26.715 32.574 27.298 32.377 27.944 C 32.65 27.227 32.449 27.112 32.519 26.52 C 32.595 26.719 32.695 26.93 32.746 27.141 C 32.568 26.447 32.928 25.974 33.018 25.571 C 32.929 25.532 32.743 25.877 32.7 25.059 C 32.706 24.703 32.799 24.873 32.835 24.785 C 32.765 24.745 32.582 24.472 32.471 23.95 C 32.551 23.826 32.686 24.268 32.796 24.286 C 32.725 23.871 32.604 23.554 32.599 23.235 C 32.277 22.564 32.485 23.324 32.225 22.947 C 31.883 21.881 32.508 22.699 32.551 22.215 C 33.069 22.965 33.364 24.129 33.5 24.61 C 33.396 24.023 33.229 23.454 33.024 22.903 C 33.182 22.97 32.771 21.695 33.229 22.539 C 32.74 20.739 31.136 19.058 29.661 18.269 C 29.841 18.434 30.068 18.641 29.987 18.674 C 29.253 18.237 29.382 18.203 29.277 18.018 C 28.679 17.775 28.639 18.038 28.244 18.019 C 27.117 17.421 26.9 17.484 25.863 17.11 L 25.91 17.331 C 25.163 17.082 25.04 17.425 24.233 17.331 C 24.184 17.293 24.492 17.193 24.745 17.156 C 24.023 17.251 24.057 17.013 23.351 17.182 C 23.525 17.06 23.709 16.979 23.895 16.875 C 23.306 16.911 22.489 17.218 22.741 16.939 C 21.781 17.367 20.076 17.969 19.119 18.866 L 19.089 18.665 C 18.651 19.191 17.177 20.237 17.06 20.919 L 16.942 20.946 C 16.715 21.332 16.567 21.77 16.386 22.167 C 16.087 22.676 15.948 22.363 15.991 22.443 C 15.404 23.633 15.112 24.633 14.86 25.453 C 15.04 25.721 14.865 27.068 14.932 28.145 C 14.638 33.469 18.668 38.637 23.074 39.83 C 23.72 40.061 24.68 40.053 25.496 40.076 C 24.533 39.8 24.409 39.93 23.469 39.603 C 22.792 39.283 22.644 38.919 22.164 38.503 L 22.354 38.839 C 21.414 38.506 21.807 38.427 21.042 38.184 L 21.245 37.92 C 20.94 37.896 20.437 37.406 20.3 37.134 L 19.966 37.147 C 19.565 36.653 19.352 36.296 19.367 36.02 L 19.26 36.212 C 19.138 36.002 17.785 34.357 18.487 34.74 C 18.356 34.622 18.183 34.547 17.995 34.205 L 18.138 34.042 C 17.801 33.607 17.516 33.051 17.538 32.865 C 17.718 33.108 17.843 33.154 17.967 33.195 C 17.114 31.08 17.066 33.079 16.421 31.042 L 16.557 31.031 C 16.453 30.873 16.389 30.702 16.305 30.534 L 16.364 29.942 C 15.751 29.233 16.193 26.925 16.282 25.659 C 16.343 25.144 16.794 24.596 17.137 23.737 L 16.928 23.701 C 17.328 23.004 19.209 20.903 20.08 21.01 C 20.503 20.48 19.997 21.008 19.914 20.875 C 20.841 19.916 21.133 20.197 21.759 20.024 C 22.433 19.624 21.179 20.181 21.499 19.872 C 22.666 19.574 22.326 19.194 23.848 19.043 C 24.008 19.135 23.475 19.184 23.341 19.303 C 24.313 18.827 26.417 18.936 27.784 19.567 C 29.369 20.308 31.151 22.498 31.222 24.559 L 31.302 24.581 C 31.261 25.4 31.427 26.347 31.139 27.218 L 31.334 26.805 L 31.334 26.805 Z  M 42.5 18 L 42.5 18 C 42.5 17.172 43.172 16.5 44 16.5 L 44 16.5 C 44.828 16.5 45.5 17.172 45.5 18 L 45.5 18 L 45.5 42.5 C 45.5 44.156 44.156 45.5 42.5 45.5 L 5.5 45.5 C 3.844 45.5 2.5 44.156 2.5 42.5 L 2.5 18 L 2.5 18 C 2.5 17.172 3.172 16.5 4 16.5 L 4 16.5 C 4.828 16.5 5.5 17.172 5.5 18 L 5.5 18 L 5.5 41.5 C 5.5 42.052 5.948 42.5 6.5 42.5 L 41.5 42.5 C 42.052 42.5 42.5 42.052 42.5 41.5 L 42.5 18 Z " fill-rule="evenodd" fill="url(#_lgradient_2)"/></svg>
